swiss/communes/0886.svg

<?xml version="1.0" encoding="UTF-8" standalone="no"?>
<svg
   xmlns:dc="http://purl.org/dc/elements/1.1/"
   xmlns:cc="http://web.resource.org/cc/"
   xmlns:rdf="http://www.w3.org/1999/02/22-rdf-syntax-ns#"
   xmlns:svg="http://www.w3.org/2000/svg"
   xmlns="http://www.w3.org/2000/svg"
   xmlns:xlink="http://www.w3.org/1999/xlink"
   xmlns:sodipodi="http://sodipodi.sourceforge.net/DTD/sodipodi-0.dtd"
   xmlns:inkscape="http://www.inkscape.org/namespaces/inkscape"
   height="763"
   width="603"
   version="1.0"
   id="svg20"
   sodipodi:version="0.32"
   inkscape:version="0.44.1"
   sodipodi:docname="Wattenwil-coat of arms.svg"
   sodipodi:docbase="F:\Mis Documentos\Mis imágenes\Encyclopédie\Escudos de Suiza">
  <metadata
     id="metadata31">
    <rdf:RDF>
      <cc:Work
         rdf:about="">
        <dc:format>image/svg+xml</dc:format>
        <dc:type
           rdf:resource="http://purl.org/dc/dcmitype/StillImage" />
        <dc:date>07-AUG-2006</dc:date>
        <dc:creator>
          <cc:Agent>
            <dc:title>Jérôme BLUM (wagner51)</dc:title>
          </cc:Agent>
        </dc:creator>
        <cc:license
           rdf:resource="http://creativecommons.org/licenses/GPL/2.0/" />
        <dc:coverage />
        <dc:description>Gabarit pour le Projet:Blasons de WIkipédia</dc:description>
        <dc:subject>
          <rdf:Bag>
            <rdf:li>blason suisse modèle gabarit projet blasons</rdf:li>
          </rdf:Bag>
        </dc:subject>
        <dc:language>fr</dc:language>
        <dc:title>Gabrit d'un blason suisse</dc:title>
      </cc:Work>
      <cc:License
         rdf:about="http://creativecommons.org/licenses/GPL/2.0/">
        <cc:permits
           rdf:resource="http://web.resource.org/cc/Reproduction" />
        <cc:permits
           rdf:resource="http://web.resource.org/cc/Distribution" />
        <cc:requires
           rdf:resource="http://web.resource.org/cc/Notice" />
        <cc:permits
           rdf:resource="http://web.resource.org/cc/DerivativeWorks" />
        <cc:requires
           rdf:resource="http://web.resource.org/cc/ShareAlike" />
        <cc:requires
           rdf:resource="http://web.resource.org/cc/SourceCode" />
      </cc:License>
    </rdf:RDF>
  </metadata>
  <defs
     id="defs29">
    <linearGradient
       id="linearGradient2893">
      <stop
         style="stop-color:#ffffff;stop-opacity:0.3137255;"
         offset="0"
         id="stop2895" />
      <stop
         id="stop2897"
         offset="0.19"
         style="stop-color:#ffffff;stop-opacity:0.25098041;" />
      <stop
         style="stop-color:#6b6b6b;stop-opacity:0.1254902;"
         offset="0.60000002"
         id="stop2901" />
      <stop
         style="stop-color:#000000;stop-opacity:0.1254902;"
         offset="1"
         id="stop2899" />
    </linearGradient>
    <linearGradient
       id="linearGradient2955">
      <stop
         style="stop-color:white;stop-opacity:0;"
         offset="0"
         id="stop2965" />
      <stop
         style="stop-color:black;stop-opacity:0.64583331;"
         offset="1"
         id="stop2959" />
    </linearGradient>
    <radialGradient
       inkscape:collect="always"
       xlink:href="#linearGradient2893"
       id="radialGradient3236"
       gradientUnits="userSpaceOnUse"
       gradientTransform="matrix(1.215027,1.531577e-24,1.464684e-23,1.266667,-839.1924,-490.4894)"
       cx="858.04236"
       cy="579.93323"
       fx="858.04236"
       fy="579.93323"
       r="300" />
  </defs>
  <sodipodi:namedview
     inkscape:window-height="682"
     inkscape:window-width="1024"
     inkscape:pageshadow="2"
     inkscape:pageopacity="0.0"
     guidetolerance="10.0"
     gridtolerance="10.0"
     objecttolerance="10.0"
     borderopacity="1.0"
     bordercolor="#666666"
     pagecolor="#ffffff"
     id="base"
     inkscape:zoom="0.41014929"
     inkscape:cx="708.39079"
     inkscape:cy="389.73726"
     inkscape:window-x="-4"
     inkscape:window-y="-4"
     inkscape:current-layer="layer2"
     showgrid="true" />
  <desc
     id="desc22">Coat of Arms of Canton of Freiburg (Fribourg)</desc>
  <g
     inkscape:groupmode="layer"
     id="layer1"
     inkscape:label="Fond écu"
     sodipodi:insensitive="true">
    <path
       id="path1899"
       d="M 1.5,1.49998 L 1.5,460.3679 C 1.5,626.6785 135.81456,761.5 301.49999,761.5 C 467.18543,761.5 601.5,626.6785 601.5,460.3679 L 601.5,1.49998 L 1.5,1.49998 z "
       style="fill:#e20909;fill-opacity:1" />
  </g>
  <g
     inkscape:groupmode="layer"
     id="layer2"
     inkscape:label="Meubles"
     sodipodi:insensitive="true">
    <g
       id="g4604"
       transform="matrix(4.254458,0,0,4.254458,-2708.066,-2434.435)">
      <path
         sodipodi:nodetypes="cccccccccccc"
         id="path2832"
         d="M 705.45715,732.54285 C 723.30117,737.81987 733.7868,734.28048 738.62855,722.0857 C 729.0857,726.95689 719.39047,723.80943 710,723 C 717.26204,721.11451 746.11758,722.43273 739.69523,698.60953 C 732.8209,705.73347 718.99206,710.07559 708.47616,715.7429 C 720.713,705.69733 745.81734,697.9153 731.03803,676.1714 C 726.08071,691.86773 713.50098,698.55574 704.54285,709.52384 C 712.21491,698.32967 734.24405,680.70562 715,663.58088 C 715.99402,678.99623 704.38409,690.70221 698.17139,704.67622 C 706.74865,687.359 712.60195,663.62386 693.59989,662.05704 C 696.3576,675.70469 692.43282,690.7238 688.47616,703.76192 L 705.45715,732.54285 z "
         style="fill:#fcef3c;fill-opacity:1;fill-rule:evenodd;stroke:black;stroke-width:1px;stroke-linecap:butt;stroke-linejoin:miter;stroke-opacity:1" />
      <path
         sodipodi:nodetypes="csccccccscc"
         id="path1925"
         d="M 695.45715,728.60953 C 685.63729,728.63991 690.1123,735.84474 700,743 C 712.68473,752.17934 719.62147,748.91708 726.21907,742.69523 C 717.613,742.24328 712.2624,736.8458 705.45715,732.23808 C 716.22637,719.90193 707.39953,703.24312 688.93332,703.60953 C 688.64792,689.13875 694.67317,672.47296 676.95233,664.06668 C 688.74747,677.6044 673.54332,706.27303 684.23808,712.84762 C 673.49228,706.35643 688.82869,677.73648 676.95233,664.06668 C 676.95233,664.06668 678.03949,685.42031 675,698 C 668.84525,723.47298 682.74382,725.18455 687.89529,716.1714 C 692.9071,718.18214 696.11661,721.73771 695.45715,728.60953 z "
         style="fill:#fcef3c;fill-opacity:1;fill-rule:evenodd;stroke:black;stroke-width:1px;stroke-linecap:butt;stroke-linejoin:miter;stroke-opacity:1" />
    </g>
    <g
       transform="matrix(4.254458,0,0,4.254458,-2856.066,-2804.435)"
       id="g4614">
      <path
         style="fill:#fcef3c;fill-opacity:1;fill-rule:evenodd;stroke:black;stroke-width:1px;stroke-linecap:butt;stroke-linejoin:miter;stroke-opacity:1"
         d="M 705.45715,732.54285 C 723.30117,737.81987 733.7868,734.28048 738.62855,722.0857 C 729.0857,726.95689 719.39047,723.80943 710,723 C 717.26204,721.11451 746.11758,722.43273 739.69523,698.60953 C 732.8209,705.73347 718.99206,710.07559 708.47616,715.7429 C 720.713,705.69733 745.81734,697.9153 731.03803,676.1714 C 726.08071,691.86773 713.50098,698.55574 704.54285,709.52384 C 712.21491,698.32967 734.24405,680.70562 715,663.58088 C 715.99402,678.99623 704.38409,690.70221 698.17139,704.67622 C 706.74865,687.359 712.60195,663.62386 693.59989,662.05704 C 696.3576,675.70469 692.43282,690.7238 688.47616,703.76192 L 705.45715,732.54285 z "
         id="path4616"
         sodipodi:nodetypes="cccccccccccc" />
      <path
         style="fill:#fcef3c;fill-opacity:1;fill-rule:evenodd;stroke:black;stroke-width:1px;stroke-linecap:butt;stroke-linejoin:miter;stroke-opacity:1"
         d="M 695.45715,728.60953 C 685.63729,728.63991 690.1123,735.84474 700,743 C 712.68473,752.17934 719.62147,748.91708 726.21907,742.69523 C 717.613,742.24328 712.2624,736.8458 705.45715,732.23808 C 716.22637,719.90193 707.39953,703.24312 688.93332,703.60953 C 688.64792,689.13875 694.67317,672.47296 676.95233,664.06668 C 688.74747,677.6044 673.54332,706.27303 684.23808,712.84762 C 673.49228,706.35643 688.82869,677.73648 676.95233,664.06668 C 676.95233,664.06668 678.03949,685.42031 675,698 C 668.84525,723.47298 682.74382,725.18455 687.89529,716.1714 C 692.9071,718.18214 696.11661,721.73771 695.45715,728.60953 z "
         id="path4618"
         sodipodi:nodetypes="csccccccscc" />
    </g>
    <g
       transform="matrix(4.254458,0,0,4.254458,-2561.066,-2804.435)"
       id="g4620">
      <path
         style="fill:#fcef3c;fill-opacity:1;fill-rule:evenodd;stroke:black;stroke-width:1px;stroke-linecap:butt;stroke-linejoin:miter;stroke-opacity:1"
         d="M 705.45715,732.54285 C 723.30117,737.81987 733.7868,734.28048 738.62855,722.0857 C 729.0857,726.95689 719.39047,723.80943 710,723 C 717.26204,721.11451 746.11758,722.43273 739.69523,698.60953 C 732.8209,705.73347 718.99206,710.07559 708.47616,715.7429 C 720.713,705.69733 745.81734,697.9153 731.03803,676.1714 C 726.08071,691.86773 713.50098,698.55574 704.54285,709.52384 C 712.21491,698.32967 734.24405,680.70562 715,663.58088 C 715.99402,678.99623 704.38409,690.70221 698.17139,704.67622 C 706.74865,687.359 712.60195,663.62386 693.59989,662.05704 C 696.3576,675.70469 692.43282,690.7238 688.47616,703.76192 L 705.45715,732.54285 z "
         id="path4622"
         sodipodi:nodetypes="cccccccccccc" />
      <path
         style="fill:#fcef3c;fill-opacity:1;fill-rule:evenodd;stroke:black;stroke-width:1px;stroke-linecap:butt;stroke-linejoin:miter;stroke-opacity:1"
         d="M 695.45715,728.60953 C 685.63729,728.63991 690.1123,735.84474 700,743 C 712.68473,752.17934 719.62147,748.91708 726.21907,742.69523 C 717.613,742.24328 712.2624,736.8458 705.45715,732.23808 C 716.22637,719.90193 707.39953,703.24312 688.93332,703.60953 C 688.64792,689.13875 694.67317,672.47296 676.95233,664.06668 C 688.74747,677.6044 673.54332,706.27303 684.23808,712.84762 C 673.49228,706.35643 688.82869,677.73648 676.95233,664.06668 C 676.95233,664.06668 678.03949,685.42031 675,698 C 668.84525,723.47298 682.74382,725.18455 687.89529,716.1714 C 692.9071,718.18214 696.11661,721.73771 695.45715,728.60953 z "
         id="path4624"
         sodipodi:nodetypes="csccccccscc" />
    </g>
  </g>
  <g
     inkscape:groupmode="layer"
     id="layer3"
     inkscape:label="Reflet final"
     style="display:inline"
     sodipodi:insensitive="true">
    <path
       style="fill:url(#radialGradient3236);fill-opacity:1"
       d="M 1.5,1.5 L 1.5,460.3679 C 1.5,626.67854 135.81454,761.5 301.49993,761.5 C 467.1854,761.5 601.5,626.67854 601.5,460.3679 L 601.5,1.5 L 1.5,1.5 z "
       id="path2346" />
  </g>
  <g
     inkscape:groupmode="layer"
     id="layer4"
     inkscape:label="Contour final"
     style="display:inline"
     sodipodi:insensitive="true">
    <path
       style="fill:none;fill-opacity:1;stroke:#000000;stroke-width:3;stroke-miterlimit:4;stroke-dasharray:none;stroke-opacity:1"
       d="M 1.5,1.5 L 1.5,460.36794 C 1.5,626.67854 135.81454,761.5 301.49993,761.5 C 467.1854,761.5 601.5,626.67854 601.5,460.36794 L 601.5,1.5 L 1.5,1.5 z "
       id="path3239" />
  </g>
</svg>

<svg xmlns="http://www.w3.org/2000/svg" xmlns:xlink="http://www.w3.org/1999/xlink" height="763" width="603" version="1.0"><defs><radialGradient xlink:href="#a" id="b" gradientUnits="userSpaceOnUse" gradientTransform="matrix(1.21503 0 0 1.26667 -839.192 -490.49)" cx="858.042" cy="579.933" fx="858.042" fy="579.933" r="300"/><linearGradient id="a"><stop style="stop-color:#fff;stop-opacity:.3137255" offset="0"/><stop offset=".19" style="stop-color:#fff;stop-opacity:.25098041"/><stop style="stop-color:#6b6b6b;stop-opacity:.1254902" offset=".6"/><stop style="stop-color:#000;stop-opacity:.1254902" offset="1"/></linearGradient></defs><path d="M1.5 1.5v458.868c0 166.31 134.315 301.132 300 301.132s300-134.822 300-301.132V1.5H1.5z" style="fill:#e20909;fill-opacity:1"/><path d="M705.457 732.543c17.844 5.277 28.33 1.737 33.172-10.457-9.543 4.87-19.239 1.723-28.629.914 7.262-1.885 36.118-.567 29.695-24.39-6.874 7.123-20.703 11.466-31.219 17.133 12.237-10.046 37.341-17.828 22.562-39.572-4.957 15.697-17.537 22.385-26.495 33.353 7.672-11.194 29.701-28.818 10.457-45.943.994 15.415-10.616 27.121-16.829 41.095 8.578-17.317 14.43-41.052-4.571-42.619 2.758 13.648-1.167 28.667-5.124 41.705l16.981 28.78z" style="fill:#fcef3c;fill-opacity:1;fill-rule:evenodd;stroke:#000;stroke-width:1px;stroke-linecap:butt;stroke-linejoin:miter;stroke-opacity:1" transform="matrix(4.25446 0 0 4.25446 -2708.066 -2434.435)"/><path d="M695.457 728.61c-9.82.03-5.345 7.235 4.543 14.39 12.685 9.18 19.621 5.917 26.22-.305-8.607-.452-13.958-5.85-20.763-10.457 10.77-12.336 1.943-28.995-16.524-28.628-.285-14.471 5.74-31.137-11.98-39.543 11.794 13.537-3.41 42.206 7.285 48.78-10.746-6.49 4.59-35.11-7.286-48.78 0 0 1.087 21.353-1.952 33.933-6.155 25.473 7.744 27.185 12.895 18.171 5.012 2.011 8.222 5.567 7.562 12.439z" style="fill:#fcef3c;fill-opacity:1;fill-rule:evenodd;stroke:#000;stroke-width:1px;stroke-linecap:butt;stroke-linejoin:miter;stroke-opacity:1" transform="matrix(4.25446 0 0 4.25446 -2708.066 -2434.435)"/><path style="fill:#fcef3c;fill-opacity:1;fill-rule:evenodd;stroke:#000;stroke-width:1px;stroke-linecap:butt;stroke-linejoin:miter;stroke-opacity:1" d="M705.457 732.543c17.844 5.277 28.33 1.737 33.172-10.457-9.543 4.87-19.239 1.723-28.629.914 7.262-1.885 36.118-.567 29.695-24.39-6.874 7.123-20.703 11.466-31.219 17.133 12.237-10.046 37.341-17.828 22.562-39.572-4.957 15.697-17.537 22.385-26.495 33.353 7.672-11.194 29.701-28.818 10.457-45.943.994 15.415-10.616 27.121-16.829 41.095 8.578-17.317 14.43-41.052-4.571-42.619 2.758 13.648-1.167 28.667-5.124 41.705l16.981 28.78z" transform="matrix(4.25446 0 0 4.25446 -2856.066 -2804.435)"/><path style="fill:#fcef3c;fill-opacity:1;fill-rule:evenodd;stroke:#000;stroke-width:1px;stroke-linecap:butt;stroke-linejoin:miter;stroke-opacity:1" d="M695.457 728.61c-9.82.03-5.345 7.235 4.543 14.39 12.685 9.18 19.621 5.917 26.22-.305-8.607-.452-13.958-5.85-20.763-10.457 10.77-12.336 1.943-28.995-16.524-28.628-.285-14.471 5.74-31.137-11.98-39.543 11.794 13.537-3.41 42.206 7.285 48.78-10.746-6.49 4.59-35.11-7.286-48.78 0 0 1.087 21.353-1.952 33.933-6.155 25.473 7.744 27.185 12.895 18.171 5.012 2.011 8.222 5.567 7.562 12.439z" transform="matrix(4.25446 0 0 4.25446 -2856.066 -2804.435)"/><g><path style="fill:#fcef3c;fill-opacity:1;fill-rule:evenodd;stroke:#000;stroke-width:1px;stroke-linecap:butt;stroke-linejoin:miter;stroke-opacity:1" d="M705.457 732.543c17.844 5.277 28.33 1.737 33.172-10.457-9.543 4.87-19.239 1.723-28.629.914 7.262-1.885 36.118-.567 29.695-24.39-6.874 7.123-20.703 11.466-31.219 17.133 12.237-10.046 37.341-17.828 22.562-39.572-4.957 15.697-17.537 22.385-26.495 33.353 7.672-11.194 29.701-28.818 10.457-45.943.994 15.415-10.616 27.121-16.829 41.095 8.578-17.317 14.43-41.052-4.571-42.619 2.758 13.648-1.167 28.667-5.124 41.705l16.981 28.78z" transform="matrix(4.25446 0 0 4.25446 -2561.066 -2804.435)"/><path style="fill:#fcef3c;fill-opacity:1;fill-rule:evenodd;stroke:#000;stroke-width:1px;stroke-linecap:butt;stroke-linejoin:miter;stroke-opacity:1" d="M695.457 728.61c-9.82.03-5.345 7.235 4.543 14.39 12.685 9.18 19.621 5.917 26.22-.305-8.607-.452-13.958-5.85-20.763-10.457 10.77-12.336 1.943-28.995-16.524-28.628-.285-14.471 5.74-31.137-11.98-39.543 11.794 13.537-3.41 42.206 7.285 48.78-10.746-6.49 4.59-35.11-7.286-48.78 0 0 1.087 21.353-1.952 33.933-6.155 25.473 7.744 27.185 12.895 18.171 5.012 2.011 8.222 5.567 7.562 12.439z" transform="matrix(4.25446 0 0 4.25446 -2561.066 -2804.435)"/></g><g style="display:inline"><path style="fill:url(#b);fill-opacity:1" d="M1.5 1.5v458.868c0 166.31 134.315 301.132 300 301.132s300-134.821 300-301.132V1.5H1.5z"/></g><g style="display:inline"><path style="fill:none;fill-opacity:1;stroke:#000;stroke-width:3;stroke-miterlimit:4;stroke-dasharray:none;stroke-opacity:1" d="M1.5 1.5v458.868c0 166.31 134.315 301.132 300 301.132s300-134.821 300-301.132V1.5H1.5z"/></g></svg>
